X:141
T:William Taylor's Table Top Hornpipe
Z:Jack Campin, http://www.campin.me.uk/
F:Jack Campin's Nine-Note Tunebook
% last edit 15-07-2013
M:4/4
L:1/8
Q:1/2=80
C:Dave Shepherd 
N:original key
K:GDor
G2 G2  G>AB>G|A>BA>G F2D2|d2 d2  c>dc>B|A>GF>G A>Bc>A|
G2 G2  G>AB>G|A>BA>G F2D2|d>cB>A G>BA>F|G>BA>F G4   :|
d>BG>B d2 d2 |c>AF>A c2c2|B>AG>F G2 G>B|A>GF>G A>Bc>A|
d>BF>B d2 d2 |c>GE>G c2c2|B>AG>F G>BA>F|G>BA>F G4   :|

